X:63
T:RVW2/2/63 The Cobbler
C:James Punt, East Horndon, Essex, 23 April 1904
L:1/8
Q:1/4=100
M:2/4
I:linebreak $
K:F
"^Allegretto  (Editorial suggestion " d>d | G2 G>A | B2 A>G | c2 cc | d2 d-d | G2 G>A | B2 A>G |$ 
w: O a|sto- ry a|sto- ry to|you I will|tell, _ con-|cer- ning a|but- cher in|
cc Bc | d2- dd | d>B d>e | f2 g>f |"^(a)" (d>B) d>e | f2 d>d | d2 g>g |$ d2 d>d | c2 c>A | 
w: Lon- don he did|dwell; _ the|but- cher was pos-|sessed of a|beau- * ti- ful|wife and the|cob- bler he|loved her as|dear as his|
F2"^Refrain" F>F | G2 G>A | B2 d2 | (c>B) AG | !fermata!G2 ||$ d>d | G2 G>A | B2 A>G | c2 cc | 
w: life. To my|wack fol de|li- do|dool _ uh le|day.|||||
d2- dd | G2 G>A | B2 A>G |$ cc Bc | d2- dd | d>B d>e | f2 g>f |"^(a) var." d2 d>e | f2 d>d | 
w: |||||||||
d2 g>g |$ d2 d>d | c2 c>A | F2 F>F | G2 G>A | B2 d2 | (c>B) AG | !fermata!G2 |] 
w: ||||||||



